Newaita-dark/actions/24/draw-square-inverted-corners.svg

<svg height="24" viewBox="0 0 24 24" width="24" xmlns="http://www.w3.org/2000/svg"><path d="m8.929688 3.167969c-.542969 0-.988282.441406-.988282.988281 0 1.902344-.269531 2.835938-.703125 3.269531-.433593.433594-1.367187.703125-3.269531.703125-.546875 0-.988281.445313-.988281.988282v5.953124c0 .546876.441406.988282.988281.988282 1.902344 0 2.835938.269531 3.269531.703125.433594.433593.703125 1.371093.703125 3.269531 0 .546875.445313.988281.988282.988281h5.953124c.546876 0 .988282-.441406.988282-.988281 0-1.898438.269531-2.835938.703125-3.269531.433593-.433594 1.371093-.703125 3.269531-.703125.546875 0 .988281-.441406.988281-.988282v-5.953124c0-.542969-.441406-.988282-.988281-.988282-1.898438 0-2.835938-.269531-3.269531-.703125-.433594-.433593-.703125-1.367187-.703125-3.269531 0-.546875-.441406-.988281-.988282-.988281zm.964843 1.976562h4.027344c.078125 1.578125.378906 2.800781 1.257813 3.679688.875.878906 2.101562 1.179687 3.679687 1.257812v4.027344c-1.578125.078125-2.804687.378906-3.679687 1.257813-.878907.875-1.179688 2.101562-1.257813 3.679687h-4.027344c-.078125-1.578125-.378906-2.804687-1.257812-3.679687-.878907-.878907-2.101563-1.179688-3.679688-1.257813v-4.027344c1.578125-.078125 2.800781-.378906 3.679688-1.257812.878906-.878907 1.179687-2.101563 1.257812-3.679688zm0 0" fill="#e0e0e0"/></svg>

<?xml version="1.0" encoding="UTF-8"?>
<svg xmlns="http://www.w3.org/2000/svg" xmlns:xlink="http://www.w3.org/1999/xlink" width="24px" height="24px" viewBox="0 0 24 24" version="1.1">
<g id="surface1">
<path style=" stroke:none;fill-rule:nonzero;fill:rgb(87.843138%,87.843138%,87.843138%);fill-opacity:1;" d="M 8.929688 3.167969 C 8.386719 3.167969 7.941406 3.609375 7.941406 4.15625 C 7.941406 6.058594 7.671875 6.992188 7.238281 7.425781 C 6.804688 7.859375 5.871094 8.128906 3.96875 8.128906 C 3.421875 8.128906 2.980469 8.574219 2.980469 9.117188 L 2.980469 15.070312 C 2.980469 15.617188 3.421875 16.058594 3.96875 16.058594 C 5.871094 16.058594 6.804688 16.328125 7.238281 16.761719 C 7.671875 17.195312 7.941406 18.132812 7.941406 20.03125 C 7.941406 20.578125 8.386719 21.019531 8.929688 21.019531 L 14.882812 21.019531 C 15.429688 21.019531 15.871094 20.578125 15.871094 20.03125 C 15.871094 18.132812 16.140625 17.195312 16.574219 16.761719 C 17.007812 16.328125 17.945312 16.058594 19.84375 16.058594 C 20.390625 16.058594 20.832031 15.617188 20.832031 15.070312 L 20.832031 9.117188 C 20.832031 8.574219 20.390625 8.128906 19.84375 8.128906 C 17.945312 8.128906 17.007812 7.859375 16.574219 7.425781 C 16.140625 6.992188 15.871094 6.058594 15.871094 4.15625 C 15.871094 3.609375 15.429688 3.167969 14.882812 3.167969 Z M 9.894531 5.144531 L 13.921875 5.144531 C 14 6.722656 14.300781 7.945312 15.179688 8.824219 C 16.054688 9.703125 17.28125 10.003906 18.859375 10.082031 L 18.859375 14.109375 C 17.28125 14.1875 16.054688 14.488281 15.179688 15.367188 C 14.300781 16.242188 14 17.46875 13.921875 19.046875 L 9.894531 19.046875 C 9.816406 17.46875 9.515625 16.242188 8.636719 15.367188 C 7.757812 14.488281 6.535156 14.1875 4.957031 14.109375 L 4.957031 10.082031 C 6.535156 10.003906 7.757812 9.703125 8.636719 8.824219 C 9.515625 7.945312 9.816406 6.722656 9.894531 5.144531 Z M 9.894531 5.144531 "/>
</g>
</svg>
